!!!COM: Palestrina, Giovanni Perluigi da
!!!OPR: Missa Sine nomine (1599)
!!!OTL: Agnus I
**kern	**kern	**kern	**kern	**kern
*Ibass	*Itenor	*Icalto	*Icalto	*Icant
!Bassus	!Tenor	!Altus 2	!Altus 1	!Cantus
*clefF4	*clefGv2	*clefG2	*clefG2	*clefG2
*k[]	*k[]	*k[]	*k[]	*k[]
*A:aeo	*A:aeo	*A:aeo	*A:aeo	*A:aeo
*M4/2	*M4/2	*M4/2	*M4/2	*M4/2
=1	=1	=1	=1	=1
1r	0r	0e	0r	0r
[1A	.	.	.	.
=2	=2	=2	=2	=2
1A]	0r	1c	0r	0r
1F	.	1d	.	.
=3	=3	=3	=3	=3
1G	0r	2.e	0r	0r
.	.	4d	.	.
2.A	.	4c	.	.
.	.	4B	.	.
.	.	[2c	.	.
4G	.	.	.	.
=4	=4	=4	=4	=4
4F	0r	2c]	0a	0r
4E	.	.	.	.
1F	.	2A	.	.
.	.	2.f	.	.
2D	.	.	.	.
.	.	4e	.	.
=5	=5	=5	=5	=5
2B-	0r	2d	1f	0r
2A	.	2c	.	.
1G	.	2d	1g	.
.	.	2e	.	.
=6	=6	=6	=6	=6
2F	0r	2.f	2.a	0r
1D	.	.	.	.
.	.	4e	4g	.
.	.	4d	4f	.
.	.	4c	4e	.
2D	.	2d	2f	.
=7	=7	=7	=7	=7
1A	0r	2c	2e	1r
.	.	2.e	2cc	.
2G#	.	.	2b	[1ee
.	.	4d	.	.
2A	.	2c	[2a	.
=8	=8	=8	=8	=8
1E	0r	1B	2a]	1ee]
.	.	.	2g#	.
2.F	.	2A	2.a	1cc
.	.	[2c	.	.
4E	.	.	4g	.
=9	=9	=9	=9	=9
1D	0r	2c]	1f	1dd
.	.	2B	.	.
1C	.	2c	1e	2.ee
.	.	2g	.	.
.	.	.	.	4dd
=10	=10	=10	=10	=10
0F	0f	2a	2.A	4cc
.	.	.	.	4b
.	.	4f	.	1cc
.	.	4g	4B	.
.	.	4a	1c	.
.	.	4b	.	.
.	.	2cc	.	2a
=11	=11	=11	=11	=11
0r	1d	4b	0r	2dd
.	.	4a	.	.
.	.	1a	.	2cc
.	1e	.	.	1b
.	.	2g#	.	.
=12	=12	=12	=12	=12
1r	2.f	1a	1d	1a
.	4e	.	.	.
[1G	4d	1r	2.B	1dd
.	4c	.	.	.
.	[2d	.	.	.
.	.	.	4A	.
=13	=13	=13	=13	=13
1G]	2d]	0g	4B	0r
.	.	.	4c	.
.	2B	.	2d	.
1E	2e	.	2c	.
.	2d	.	2B	.
=14	=14	=14	=14	=14
1F	1c	1a	1A	0r
2.G	1B	1d	2G	.
.	.	.	2g	.
4F	.	.	.	.
=15	=15	=15	=15	=15
4E	1e	2.g	2.b	0gg
4D	.	.	.	.
1E	.	.	.	.
.	.	4f	4a	.
.	1r	4e	2b	.
.	.	4d	.	.
2C	.	[2e	2cc	.
=16	=16	=16	=16	=16
2.c	0r	2e]	4g	1ee
.	.	.	4f	.
.	.	1c	4e	.
4B	.	.	4d	.
1A	.	.	1c	1ff
.	.	[2cc	.	.
=17	=17	=17	=17	=17
1G	1r	2cc]	1d	2.gg
.	.	2b	.	.
.	.	.	.	4ff
[1A	[1a	[1cc	2.c	4ee
.	.	.	.	4dd
.	.	.	.	[2ee
.	.	.	4d	.
=18	=18	=18	=18	=18
1A]	1a]	1cc]	2e	2ee]
.	.	.	4f	2cc
.	.	.	4g	.
1r	1f	1r	4a	2ff
.	.	.	4b	.
.	.	.	[2cc	2ee
=19	=19	=19	=19	=19
1r	1g	1r	2cc]	1dd
.	.	.	2b	.
1A	2.a	2r	1cc	1cc
.	.	2c	.	.
.	4g	.	.	.
=20	=20	=20	=20	=20
0B-	4f	2.d	0b-	0r
.	4e	.	.	.
.	1f	.	.	.
.	.	4c	.	.
.	.	4d	.	.
.	.	4e	.	.
.	2d	2f	.	.
=21	=21	=21	=21	=21
1G	2g	4e	1b-	0r
.	.	4d	.	.
.	2f	1d	.	.
1A	1e	.	1a	.
.	.	2c#	.	.
=22	=22	=22	=22	=22
1D	1d	2d	2f#	1r
.	.	1d	2f#	.
1G	1r	.	1g	1b
.	.	[2e	.	.
=23	=23	=23	=23	=23
1A	0r	2e]	2e	1cc
.	.	2c	2f#	.
2G	.	2d	2.g	2b
2E	.	[2g	.	2g
.	.	.	4f	.
=24	=24	=24	=24	=24
2G	0r	4g]	4e	2b
.	.	4f	4d	.
2A	.	1e	1c	2cc
1F	.	.	.	1a
.	.	2d	2A	.
=25	=25	=25	=25	=25
1C	1c	1e	2r	2g
.	.	.	2e	2cc
1r	1d	1r	1f	2a
.	.	.	.	2b
=26	=26	=26	=26	=26
1r	2c	0r	2e	4cc
.	.	.	.	4g
.	2A	.	2c	2.cc
2r	2c	.	2e	.
.	.	.	.	4b
2F	2d	.	2f	[2a
=27	=27	=27	=27	=27
1G	1B	1r	0d	2a]
.	.	.	.	2g
2F	2A	2r	.	1a
2D	2d	2f	.	.
=28	=28	=28	=28	=28
1E	2B	1g	1G	0r
.	2c	.	.	.
[1D	4d	2f	1A	.
.	4A	.	.	.
.	[2d	2d	.	.
=29	=29	=29	=29	=29
2D]	4d]	2f	1r	0r
.	4c	.	.	.
2E	1B	1e	.	.
1F	.	.	2r	.
.	2A	2d	[2a	.
=30	=30	=30	=30	=30
1E	1B	1e	2a]	0ee
.	.	.	2g	.
1r	1r	2a	2cc	.
.	.	2g	2b	.
=31	=31	=31	=31	=31
0r	0r	2f	2a	1dd
.	.	2.g	2b	.
.	.	.	1e	2.gg
.	.	4f	.	.
.	.	4e	.	.
.	.	4d	.	4ff
=32	=32	=32	=32	=32
1r	1r	2c	1g	2ee
.	.	2B	.	2dd
[1F	[1f	1A	2a	2cc
.	.	.	2b	2b
=33	=33	=33	=33	=33
1F]	1f]	2r	[0cc	1a
.	.	1c	.	.
1c	1e	.	.	1g
.	.	2e	.	.
=34	=34	=34	=34	=34
0F	2.a	1f	1cc]	2r
.	.	.	.	1cc
.	4g	.	.	.
.	2f	1c	1a	.
.	2e	.	.	2cc
=35	=35	=35	=35	=35
2G	2d	1r	4g	2b
.	.	.	4f	.
2A	2c	.	4e	1a
.	.	.	4d	.
1E	1B	2r	1e	.
.	.	2e	.	2g#
=36	=36	=36	=36	=36
2.F	[0A	2c	2r	[0a
.	.	1f	2c	.
4E	.	.	.	.
2D	.	.	2d	.
2C#	.	2e	2e	.
=37	=37	=37	=37	=37
0D	1A_	1d	1f	1a_
.	1A_	1f	1d	1a_
=38	=38	=38	=38	=38
0A	0A]	0e	0c#	0a]
==	==	==	==	==
*-	*-	*-	*-	*-
!!!CDT: 1525/^1526/-1594/2/2
!!!OCY: Italia
!!!AGN: Mass (Canonic)
!!!AST: renaissance, vocal
!!!ASW: Antiphon
!!!PWK: Masses, Book 9
!!!RNB: Cadence finals: D
!!!YOR: Le Opere Complete, v. 25, p. 93
!!!YOO: Rome, Italy: Fratelli Scalera
!!!END: 1992//
!!!EED: John Miller
!!!YEC: Copyright 2000, John Miller
!!!YEN: United States of America
!!!YEM: Rights to all derivative electronic formats reserved.
!!!YEM: Refer to licensing agreement for further details.
!!!YEM: This file must be accompanied by the licensing agreement.
!!!YEM: A copy of the licensing agreement may be found at http://www.music-cog.ohio-state.edu/HumdrumDatabases/Palestrina/license.txt
!!!EMD: converted to Humdrum by Bret Aarden
